src/icons/hicolor/scalable/apps/yast-auth-client.svg

<?xml version="1.0" encoding="UTF-8"?>
<svg version="1.0" viewBox="0 0 128 128" xmlns="http://www.w3.org/2000/svg" xmlns:xlink="http://www.w3.org/1999/xlink">
<defs>
<linearGradient id="a">
<stop stop-color="#f6f5f4" offset="0"/>
<stop stop-color="#deddda" offset="1"/>
</linearGradient>
<linearGradient id="j" x1="94" x2="94" y1="236" y2="232" gradientTransform="translate(-6,-1)" gradientUnits="userSpaceOnUse" xlink:href="#a"/>
<linearGradient id="i" x1="96" x2="96" y1="48" y2="80" gradientTransform="translate(-6,-1)" gradientUnits="userSpaceOnUse" xlink:href="#a"/>
<linearGradient id="f" x1="66" x2="66" y1="224" y2="228" gradientTransform="translate(-6,-1)" gradientUnits="userSpaceOnUse" xlink:href="#a"/>
<linearGradient id="e" x1="76" x2="76" y1="242" y2="246" gradientTransform="translate(-6,-1)" gradientUnits="userSpaceOnUse">
<stop stop-color="#cfcfcc" offset="0"/>
<stop stop-color="#f6f5f4" offset="1"/>
</linearGradient>
<linearGradient id="g" x1="66" x2="66" y1="246" y2="250" gradientTransform="translate(-6,-1)" gradientUnits="userSpaceOnUse">
<stop stop-color="#deddda" offset="0"/>
<stop stop-color="#f6f5f4" offset="1"/>
</linearGradient>
<linearGradient id="h" x1="14" x2="126" y1="239" y2="239" gradientTransform="translate(-6,-173)" gradientUnits="userSpaceOnUse">
<stop stop-color="#c0bfbc" offset="0"/>
<stop stop-color="#d6d5d1" offset="1"/>
</linearGradient>
<radialGradient id="b" cx="64" cy="59.733" r="32" gradientTransform="matrix(1 0 0 1.25 0 -34.667)" gradientUnits="userSpaceOnUse">
<stop stop-color="#deddda" offset="0"/>
<stop stop-color="#c0bfbc" offset=".5"/>
<stop stop-color="#f6f5f4" offset=".75"/>
<stop stop-color="#deddda" offset="1"/>
</radialGradient>
<linearGradient id="d" x1="64" x2="64" y1="276" y2="220" gradientUnits="userSpaceOnUse">
<stop stop-color="#f5c211" offset="0"/>
<stop stop-color="#f6d32d" offset="1"/>
</linearGradient>
<linearGradient id="c" x1="24" x2="104" y1="272" y2="272" gradientUnits="userSpaceOnUse">
<stop stop-color="#e5a50a" offset="0"/>
<stop stop-color="#f6d32d" offset=".025"/>
<stop stop-color="#e5a50a" offset=".05"/>
<stop stop-color="#e5a50a" offset=".95"/>
<stop stop-color="#f6d32d" offset=".975"/>
<stop stop-color="#e5a50a" offset="1"/>
</linearGradient>
</defs>
<g transform="translate(0,-172)">
<rect x="24" y="260" width="80" height="24" ry="4" fill="url(#c)"/>
<rect x="24" y="220" width="80" height="56" ry="4" fill="url(#d)"/>
<path transform="translate(0,172)" d="m64 8c-17.728 0-32 14.272-32 32v8h16v-8c0-8.864 7.136-16 16-16s16 7.136 16 16v8h16v-8c0-17.728-14.272-32-32-32z" fill="url(#b)"/>
<path transform="translate(0,172)" d="m33 41c-13.807 0-25 11.193-25 25s11.193 25 25 25c10.324-0.0111 19.58-6.3678 23.297-16h1.7031v2c0 1.108 0.892 2 2 2s2-0.892 2-2v-2h10l4-4 2 2 2-2h6l2 2 2-2h4l4 4 2-2 2 2 4-4h2l2 2 2-2 6-6 2-2v-2h-2l-4-4h-52v-2c0-1.108-0.892-2-2-2s-2 0.892-2 2v2h-1.7051c-3.7165-9.6316-12.971-15.988-23.295-16zm-9 19a6 6 0 0 1 6 6 6 6 0 0 1 -6 6 6 6 0 0 1 -6 -6 6 6 0 0 1 6 -6z" fill="url(#h)"/>
<rect x="58" y="243" width="4" height="6" ry="2" fill="url(#g)"/>
<path d="m112 241-2 2-2-2h-2l-4 4-2-2-2 2-4-4h-4l-2 2-2-2h-6l-2 2-2-2-4 4h-20v-4z" fill="url(#e)"/>
<rect x="58" y="223" width="4" height="8" ry="2" fill="url(#f)"/>
<path transform="translate(0,172)" d="m33 39a25 25 0 0 0 -25 25 25 25 0 0 0 25 25 25 25 0 0 0 24.469 -20h54.531l8-8-6-6h-57.705a25 25 0 0 0 -23.295 -16zm-9 19c3.324 0 6 2.676 6 6s-2.676 6-6 6-6-2.676-6-6 2.676-6 6-6z" fill="url(#i)"/>
<path d="m118 231h-66v4h66l2-2z" fill="url(#j)"/>
</g>
</svg>

<?xml version="1.0" encoding="UTF-8" standalone="no"?>
<svg
   xmlns:dc="http://purl.org/dc/elements/1.1/"
   xmlns:cc="http://creativecommons.org/ns#"
   xmlns:rdf="http://www.w3.org/1999/02/22-rdf-syntax-ns#"
   xmlns:svg="http://www.w3.org/2000/svg"
   xmlns="http://www.w3.org/2000/svg"
   xmlns:xlink="http://www.w3.org/1999/xlink"
   viewBox="0 0 128 128"
   style="display:inline;enable-background:new"
   version="1.0"
   id="svg11300"
   height="128"
   width="128">
  <title
     id="title4162">Adwaita Icon Template</title>
  <defs
     id="defs3">
    <linearGradient
       id="linearGradient1814">
      <stop
         id="stop1810"
         offset="0"
         style="stop-color:#e5a50a;stop-opacity:1;" />
      <stop
         style="stop-color:#f6d32d;stop-opacity:1"
         offset="0.025"
         id="stop1822" />
      <stop
         id="stop1824"
         offset="0.05"
         style="stop-color:#e5a50a;stop-opacity:1" />
      <stop
         style="stop-color:#e5a50a;stop-opacity:1"
         offset="0.94999999"
         id="stop1820" />
      <stop
         style="stop-color:#f6d32d;stop-opacity:1"
         offset="0.97500002"
         id="stop1818" />
      <stop
         id="stop1812"
         offset="1"
         style="stop-color:#e5a50a;stop-opacity:1" />
    </linearGradient>
    <linearGradient
       id="linearGradient1804">
      <stop
         id="stop1800"
         offset="0"
         style="stop-color:#f5c211;stop-opacity:1" />
      <stop
         id="stop1802"
         offset="1"
         style="stop-color:#f6d32d;stop-opacity:1" />
    </linearGradient>
    <linearGradient
       id="linearGradient1678">
      <stop
         id="stop1674"
         offset="0"
         style="stop-color:#deddda;stop-opacity:1;" />
      <stop
         style="stop-color:#c0bfbc;stop-opacity:1"
         offset="0.5"
         id="stop1682" />
      <stop
         id="stop1698"
         offset="0.75"
         style="stop-color:#f6f5f4;stop-opacity:1" />
      <stop
         id="stop1676"
         offset="1"
         style="stop-color:#deddda;stop-opacity:1" />
    </linearGradient>
    <linearGradient
       id="linearGradient1502">
      <stop
         id="stop1498"
         offset="0"
         style="stop-color:#c0bfbc;stop-opacity:1" />
      <stop
         id="stop1500"
         offset="1"
         style="stop-color:#d6d5d1;stop-opacity:1" />
    </linearGradient>
    <linearGradient
       id="linearGradient1494">
      <stop
         id="stop1490"
         offset="0"
         style="stop-color:#f6f5f4;stop-opacity:1" />
      <stop
         id="stop1492"
         offset="1"
         style="stop-color:#deddda;stop-opacity:1" />
    </linearGradient>
    <linearGradient
       gradientUnits="userSpaceOnUse"
       y2="80"
       x2="96"
       y1="48"
       x1="96"
       id="linearGradient1496"
       xlink:href="#linearGradient1494" />
    <linearGradient
       gradientUnits="userSpaceOnUse"
       y2="239"
       x2="126"
       y1="239"
       x1="14.000004"
       id="linearGradient1504"
       xlink:href="#linearGradient1502" />
    <linearGradient
       gradientUnits="userSpaceOnUse"
       y2="232"
       x2="94"
       y1="236"
       x1="94"
       id="linearGradient1488"
       xlink:href="#linearGradient1494"
       gradientTransform="translate(-6,-1)" />
    <linearGradient
       gradientUnits="userSpaceOnUse"
       y2="80"
       x2="96"
       y1="48"
       x1="96"
       id="linearGradient1496-5"
       xlink:href="#linearGradient1494"
       gradientTransform="translate(-6,-1)" />
    <linearGradient
       gradientUnits="userSpaceOnUse"
       y2="228"
       x2="66"
       y1="224"
       x1="66"
       id="linearGradient1520"
       xlink:href="#linearGradient1494"
       gradientTransform="translate(-6,-1)" />
    <linearGradient
       gradientUnits="userSpaceOnUse"
       y2="246"
       x2="76"
       y1="242"
       x1="76"
       id="linearGradient1528"
       xlink:href="#linearGradient1534"
       gradientTransform="translate(-6,-1)" />
    <linearGradient
       id="linearGradient1534">
      <stop
         style="stop-color:#cfcfcc;stop-opacity:1"
         offset="0"
         id="stop1530" />
      <stop
         style="stop-color:#f6f5f4;stop-opacity:1"
         offset="1"
         id="stop1532" />
    </linearGradient>
    <linearGradient
       gradientUnits="userSpaceOnUse"
       y2="250"
       x2="66"
       y1="246"
       x1="66"
       id="linearGradient1512"
       xlink:href="#linearGradient1510"
       gradientTransform="translate(-6,-1)" />
    <linearGradient
       id="linearGradient1510">
      <stop
         id="stop1506"
         offset="0"
         style="stop-color:#deddda;stop-opacity:1" />
      <stop
         id="stop1508"
         offset="1"
         style="stop-color:#f6f5f4;stop-opacity:1" />
    </linearGradient>
    <linearGradient
       gradientUnits="userSpaceOnUse"
       y2="239"
       x2="126"
       y1="239"
       x1="14.000004"
       id="linearGradient1504-9"
       xlink:href="#linearGradient1502"
       gradientTransform="translate(-6,-173)" />
    <radialGradient
       gradientUnits="userSpaceOnUse"
       gradientTransform="matrix(1,0,0,1.25,0,-34.66667)"
       r="32"
       fy="59.733337"
       fx="64"
       cy="59.733337"
       cx="64"
       id="radialGradient1680"
       xlink:href="#linearGradient1678" />
    <linearGradient
       gradientUnits="userSpaceOnUse"
       y2="220"
       x2="64"
       y1="276"
       x1="64"
       id="linearGradient1806"
       xlink:href="#linearGradient1804" />
    <linearGradient
       gradientUnits="userSpaceOnUse"
       y2="272"
       x2="104"
       y1="272"
       x1="24"
       id="linearGradient1816"
       xlink:href="#linearGradient1814" />
  </defs>
  <metadata
     id="metadata4">
    <rdf:RDF>
      <cc:Work
         rdf:about="">
        <dc:format>image/svg+xml</dc:format>
        <dc:type
           rdf:resource="http://purl.org/dc/dcmitype/StillImage" />
        <dc:creator>
          <cc:Agent>
            <dc:title>GNOME Design Team</dc:title>
          </cc:Agent>
        </dc:creator>
        <dc:source />
        <cc:license
           rdf:resource="http://creativecommons.org/licenses/by-sa/4.0/" />
        <dc:title>Adwaita Icon Template</dc:title>
        <dc:subject>
          <rdf:Bag />
        </dc:subject>
        <dc:date />
        <dc:rights>
          <cc:Agent>
            <dc:title />
          </cc:Agent>
        </dc:rights>
        <dc:publisher>
          <cc:Agent>
            <dc:title />
          </cc:Agent>
        </dc:publisher>
        <dc:identifier />
        <dc:relation />
        <dc:language />
        <dc:coverage />
        <dc:description />
        <dc:contributor>
          <cc:Agent>
            <dc:title />
          </cc:Agent>
        </dc:contributor>
      </cc:Work>
      <cc:License
         rdf:about="http://creativecommons.org/licenses/by-sa/4.0/">
        <cc:permits
           rdf:resource="http://creativecommons.org/ns#Reproduction" />
        <cc:permits
           rdf:resource="http://creativecommons.org/ns#Distribution" />
        <cc:requires
           rdf:resource="http://creativecommons.org/ns#Notice" />
        <cc:requires
           rdf:resource="http://creativecommons.org/ns#Attribution" />
        <cc:permits
           rdf:resource="http://creativecommons.org/ns#DerivativeWorks" />
        <cc:requires
           rdf:resource="http://creativecommons.org/ns#ShareAlike" />
      </cc:License>
    </rdf:RDF>
  </metadata>
  <g
     transform="translate(0,-172)"
     style="display:inline"
     id="layer1">
    <g
       style="display:none"
       id="layer2">
      <text
         id="context"
         y="148.65199"
         x="7.9499588"
         style="font-style:normal;font-variant:normal;font-weight:normal;font-stretch:normal;font-size:5.33333349px;line-height:125%;font-family:Cantarell;-inkscape-font-specification:'Cantarell, Normal';text-align:start;writing-mode:lr-tb;text-anchor:start;display:inline;fill:#000000;fill-opacity:1;stroke:none;stroke-width:0.33264872;enable-background:new"
         xml:space="preserve"><tspan
           style="font-size:5.33333349px;stroke-width:0.33264872"
           y="148.65199"
           x="7.9499588"
           id="tspan2716">apps</tspan></text>
      <text
         xml:space="preserve"
         style="font-style:normal;font-variant:normal;font-weight:bold;font-stretch:normal;font-size:5.33333349px;line-height:125%;font-family:Cantarell;-inkscape-font-specification:'Cantarell, Bold';text-align:start;writing-mode:lr-tb;text-anchor:start;display:inline;fill:#000000;fill-opacity:1;stroke:none;stroke-width:0.33264872;enable-background:new"
         x="7.7533054"
         y="157.23398"
         id="text3021"><tspan
           style="font-size:5.33333349px;stroke-width:0.33264872"
           id="tspan3023"
           x="7.7533054"
           y="157.23398">org.gnome.</tspan></text>
      <g
         id="g12027"
         transform="matrix(7.9911709,0,0,8.0036407,-167.7909,-4846.0776)"
         style="display:inline;fill:#000000;enable-background:new" />
      <rect
         y="172"
         x="9.2651362e-08"
         height="128"
         width="128"
         id="rect13805"
         style="display:inline;overflow:visible;visibility:visible;fill:#f0f0f0;fill-opacity:1;fill-rule:nonzero;stroke:none;stroke-width:0.5;marker:none;enable-background:accumulate" />
      <g
         transform="translate(-24,24)"
         style="fill:none;fill-opacity:0.25098039;stroke:#a579b3;stroke-opacity:1"
         id="g883" />
      <g
         transform="translate(-24,24)"
         style="fill:none;fill-opacity:0.25098039;stroke:#a579b3;stroke-opacity:1"
         id="g900" />
      <g
         transform="matrix(0.25,0,0,0.25,0,225)"
         id="g1168">
        <circle
           style="opacity:0.1;fill:#2864b0;fill-opacity:1;stroke:none;stroke-width:1;stroke-linecap:butt;stroke-linejoin:miter;stroke-miterlimit:4;stroke-dasharray:none;stroke-dashoffset:0;stroke-opacity:1;marker:none;marker-start:none;marker-mid:none;marker-end:none;paint-order:normal"
           id="path1142"
           r="240"
           cy="44"
           cx="256" />
        <rect
           style="opacity:0.1;fill:#2864b0;fill-opacity:1;stroke:none;stroke-width:1;stroke-linecap:butt;stroke-linejoin:miter;stroke-miterlimit:4;stroke-dasharray:none;stroke-dashoffset:0;stroke-opacity:1;marker:none;marker-start:none;marker-mid:none;marker-end:none;paint-order:normal"
           id="rect1110"
           width="319.99979"
           height="448"
           x="96"
           y="-180"
           rx="32"
           ry="32" />
        <rect
           style="display:inline;opacity:0.1;fill:#2864b0;fill-opacity:1;stroke:none;stroke-width:1;stroke-linecap:butt;stroke-linejoin:miter;stroke-miterlimit:4;stroke-dasharray:none;stroke-dashoffset:0;stroke-opacity:1;marker:none;marker-start:none;marker-mid:none;marker-end:none;paint-order:normal;enable-background:new"
           id="rect1110-8"
           width="416"
           height="416"
           x="48"
           y="-164"
           rx="32"
           ry="32" />
        <rect
           style="display:inline;opacity:0.1;fill:#2864b0;fill-opacity:1;stroke:none;stroke-width:1;stroke-linecap:butt;stroke-linejoin:miter;stroke-miterlimit:4;stroke-dasharray:none;stroke-dashoffset:0;stroke-opacity:1;marker:none;marker-start:none;marker-mid:none;marker-end:none;paint-order:normal;enable-background:new"
           id="rect1110-8-9"
           width="448"
           height="320"
           x="32"
           y="-116"
           rx="32"
           ry="32" />
      </g>
    </g>
    <g
       style="display:inline"
       id="layer9">
      <rect
         ry="4"
         y="260"
         x="24"
         height="24"
         width="80"
         id="rect1628"
         style="display:inline;opacity:1;fill:url(#linearGradient1816);fill-opacity:1;stroke:none;stroke-width:1;stroke-linecap:butt;stroke-linejoin:round;stroke-miterlimit:4;stroke-dasharray:none;stroke-opacity:1;enable-background:new" />
      <rect
         ry="4"
         y="220"
         x="24"
         height="56"
         width="80"
         id="rect1626"
         style="display:inline;opacity:1;fill:url(#linearGradient1806);fill-opacity:1;stroke:none;stroke-width:1;stroke-linecap:butt;stroke-linejoin:round;stroke-miterlimit:4;stroke-dasharray:none;stroke-opacity:1;enable-background:new" />
      <path
         transform="translate(0,172)"
         id="rect1657"
         d="M 64 8 C 46.272 8 32 22.272 32 40 L 32 48 L 48 48 L 48 40 C 48 31.136 55.136 24 64 24 C 72.864 24 80 31.136 80 40 L 80 48 L 96 48 L 96 40 C 96 22.272 81.728 8 64 8 z "
         style="opacity:1;fill:url(#radialGradient1680);fill-opacity:1;stroke:none;stroke-width:1;stroke-linecap:butt;stroke-linejoin:round;stroke-miterlimit:4;stroke-dasharray:none;stroke-opacity:1" />
      <path
         id="rect1440-3"
         transform="translate(0,172)"
         d="M 33 41 C 19.192881 41 8 52.19288 8 66 C 8 79.80712 19.192881 91 33 91 C 43.324457 90.9889 52.580074 84.63223 56.296875 75 L 58 75 L 58 77 C 58 78.108 58.892 79 60 79 C 61.108 79 62 78.108 62 77 L 62 75 L 72 75 L 76 71 L 78 73 L 80 71 L 86 71 L 88 73 L 90 71 L 94 71 L 98 75 L 100 73 L 102 75 L 106 71 L 108 71 L 110 73 L 112 71 L 118 65 L 120 63 L 120 61 L 118 61 L 114 57 L 62 57 L 62 55 C 62 53.892 61.108 53 60 53 C 58.892 53 58 53.892 58 55 L 58 57 L 56.294922 57 C 52.578379 47.36843 43.323744 41.01193 33 41 z M 24 60 A 6 6 0 0 1 30 66 A 6 6 0 0 1 24 72 A 6 6 0 0 1 18 66 A 6 6 0 0 1 24 60 z "
         style="display:inline;opacity:1;fill:url(#linearGradient1504-9);fill-opacity:1;stroke:none;stroke-width:1;stroke-linecap:butt;stroke-linejoin:round;stroke-miterlimit:4;stroke-dasharray:none;stroke-opacity:1;enable-background:new" />
      <rect
         ry="2"
         y="243"
         x="57.999996"
         height="6"
         width="4"
         id="rect1440"
         style="display:inline;opacity:1;fill:url(#linearGradient1512);fill-opacity:1;stroke:none;stroke-width:1;stroke-linecap:butt;stroke-linejoin:round;stroke-miterlimit:4;stroke-dasharray:none;stroke-opacity:1;enable-background:new" />
      <path
         id="path1436"
         d="m 112,241 -2,2 -2,-2 h -2 l -4,4 -2,-2 -2,2 -4,-4 h -4 l -2,2 -2,-2 h -6 l -2,2 -2,-2 -4,4 H 52 v -4 z"
         style="display:inline;fill:url(#linearGradient1528);fill-opacity:1;stroke:none;stroke-width:1px;stroke-linecap:butt;stroke-linejoin:miter;stroke-opacity:1;enable-background:new" />
      <rect
         ry="2"
         y="223"
         x="57.999996"
         height="8"
         width="4"
         id="rect1432"
         style="display:inline;opacity:1;fill:url(#linearGradient1520);fill-opacity:1;stroke:none;stroke-width:1;stroke-linecap:butt;stroke-linejoin:round;stroke-miterlimit:4;stroke-dasharray:none;stroke-opacity:1;enable-background:new" />
      <path
         id="path1428"
         transform="translate(0,172)"
         d="M 33 39 A 25 25 0 0 0 8 64 A 25 25 0 0 0 33 89 A 25 25 0 0 0 57.46875 69 L 112 69 L 120 61 L 114 55 L 56.294922 55 A 25 25 0 0 0 33 39 z M 24 58 C 27.324 58 30 60.676 30 64 C 30 67.324 27.324 70 24 70 C 20.676 70 18 67.324 18 64 C 18 60.676 20.676 58 24 58 z "
         style="display:inline;opacity:1;fill:url(#linearGradient1496-5);fill-opacity:1;stroke:none;stroke-width:1;stroke-linecap:butt;stroke-linejoin:round;stroke-miterlimit:4;stroke-dasharray:none;stroke-opacity:1;enable-background:new" />
      <path
         id="path1438"
         d="M 118,231 H 52 v 4 h 66 l 2,-2 z"
         style="display:inline;fill:url(#linearGradient1488);fill-opacity:1;stroke:none;stroke-width:1px;stroke-linecap:butt;stroke-linejoin:miter;stroke-opacity:1;enable-background:new" />
    </g>
  </g>
</svg>
